assets/images/bg_footer.svg

<svg width="1358" height="716" fill="none" xmlns="http://www.w3.org/2000/svg"><mask id="a" maskUnits="userSpaceOnUse" x="0" y="0" width="1358" height="716"><path fill="#242424" d="M0 0h1358v716H0z"/></mask><g mask="url(#a)"><path fill-rule="evenodd" clip-rule="evenodd" d="M315.201 794.797a247.512 247.512 0 01-152.734-52.437 248.72 248.72 0 01-127.072 51.151 248.765 248.765 0 01-134.893-23.88A248.576 248.576 0 01-201.26 677.97 248.387 248.387 0 01-239 546.353a248.387 248.387 0 0137.74-131.617 248.583 248.583 0 01101.762-91.661 248.765 248.765 0 01134.893-23.88 248.72 248.72 0 01127.072 51.151 248.713 248.713 0 01106.736-48.218 248.764 248.764 0 01116.98 5.973 248.667 248.667 0 01101.263 58.838 248.487 248.487 0 0163.072 98.646 248.37 248.37 0 0110.882 116.56 248.423 248.423 0 01-43.721 108.605 248.6 248.6 0 01-88.623 76.547 248.75 248.75 0 01-113.855 27.5zm-119.041-412.4c38.361 43.918 61.804 123.233 61.804 163.905s-2.03 36.615-5.886 53.959a113.936 113.936 0 0055.626-52.122 113.84 113.84 0 0010.294-75.509 113.888 113.888 0 00-39.647-65.096 114.003 114.003 0 00-71.839-25.542h-10.149l-.203.405zm-78.345 100.311a114.109 114.109 0 0176.435 29.291 113.988 113.988 0 0137.12 72.92 113.96 113.96 0 01-21.313 78.994 114.08 114.08 0 01-68.77 44.383A114.128 114.128 0 0160.48 695.21a114.019 114.019 0 01-51.228-63.816 113.944 113.944 0 014.736-81.678 114.039 114.039 0 0158.26-57.474 248.967 248.967 0 001.886 115.519 249.062 249.062 0 0053.829 102.244 113.896 113.896 0 0070.319-32.766 113.78 113.78 0 0032.992-70.182 110.968 110.968 0 01-24.762 2.738 114 114 0 01-80.587-33.361 113.867 113.867 0 01-33.38-80.541c0-3.549 0-6.998.507-10.142a116.445 116.445 0 0124.763-2.739v-.304z" fill="#212121"/></g></svg>

<svg width="1358" height="716" viewBox="0 0 1358 716" fill="none" xmlns="http://www.w3.org/2000/svg">
<mask id="mask0" mask-type="alpha" maskUnits="userSpaceOnUse" x="0" y="0" width="1358" height="716">
<rect width="1358" height="716" fill="#242424"/>
</mask>
<g mask="url(#mask0)">
<path fill-rule="evenodd" clip-rule="evenodd" d="M315.201 794.797C259.854 794.883 206.077 776.42 162.467 742.36C125.738 770.966 81.7091 788.689 35.3946 793.511C-10.9198 798.332 -57.6582 790.058 -99.4979 769.631C-141.338 749.204 -176.597 717.445 -201.26 677.97C-225.924 638.495 -239 592.892 -239 546.353C-239 499.814 -225.924 454.211 -201.26 414.736C-176.597 375.262 -141.338 343.502 -99.4979 323.075C-57.6582 302.648 -10.9198 294.374 35.3946 299.195C81.7091 304.017 125.738 321.74 162.467 350.346C193.696 326.008 230.29 309.476 269.203 302.128C308.115 294.78 348.222 296.827 386.183 308.101C424.144 319.374 458.861 339.546 487.446 366.939C516.03 394.332 537.654 428.152 550.518 465.585C563.381 503.018 567.112 542.98 561.4 582.145C555.688 621.31 540.698 658.545 517.679 690.75C494.659 722.955 464.275 749.199 429.056 767.297C393.837 785.395 354.802 794.823 315.201 794.797ZM196.16 382.397C234.521 426.315 257.964 505.63 257.964 546.302C257.964 586.974 255.934 582.917 252.078 600.261C276.058 589.786 295.7 571.381 307.704 548.139C319.709 524.897 323.343 498.234 317.998 472.63C312.653 447.025 298.653 424.039 278.351 407.534C258.049 391.029 232.682 382.009 206.512 381.992C203.061 381.992 196.363 381.992 196.363 381.992L196.16 382.397ZM117.815 482.708C146.042 482.684 173.275 493.12 194.25 511.999C215.224 530.879 228.45 556.86 231.37 584.919C234.289 612.979 226.696 641.124 210.057 663.913C193.418 686.701 168.915 702.515 141.287 708.296C113.659 714.076 84.868 709.414 60.48 695.21C36.092 681.005 17.8397 658.268 9.2523 631.394C0.664886 604.52 2.35239 575.419 13.9883 549.716C25.6241 524.014 46.3819 503.536 72.2483 492.242C63.81 530.364 64.4558 569.934 74.1338 607.761C83.8117 645.587 102.251 680.611 127.963 710.005C154.518 707.647 179.403 696.051 198.282 677.239C217.16 658.426 228.836 633.59 231.274 607.057C223.149 608.896 214.842 609.815 206.512 609.795C176.286 609.795 147.298 597.795 125.925 576.434C104.552 555.074 92.545 526.102 92.545 495.893C92.545 492.344 92.5451 488.895 93.0525 485.751C101.185 483.955 109.486 483.037 117.815 483.012V482.708Z" fill="#212121"/>
</g>
</svg>
